Origami/16x16/apps/starbound.svg

<svg width="16" height="16" version="1.1" viewBox="0 0 16 16" xmlns="http://www.w3.org/2000/svg">
 <rect width="16" height="16" rx=".8" ry=".8" style="fill:#7767c0"/>
 <path d="m9.6192 1.6043-0.8511 1.289a3.7142 3.7142 0 0 0 -0.4826 -0.0363 3.7142 3.7142 0 0 0 -1.4234 0.2846l-1.1537-1.0228 0.3103 1.5162a3.7142 3.7142 0 0 0 -0.808 0.8654 12.571 12.571 0 0 0 -4.35363 -0.7862 12.571 12.571 0 0 0 -0.85713 0.0428v0.5929a12.286 12.286 0 0 1 1.14286 -0.0643 12.286 12.286 0 0 1 12.2622 11.7144h9e-3a12.571 12.571 0 0 0 -2.328 -7.0031 3.7142 3.7142 0 0 0 0.62 -0.9871l1.558-0.0937-1.301-0.8588a3.7142 3.7142 0 0 0 0.037 -0.486 3.7142 3.7142 0 0 0 -0.279 -1.4074l1.028-1.1583-1.518 0.3106a3.7142 3.7142 0 0 0 -1.5192 -1.1712zm-1.3337 1.8242a3.1428 3.1428 0 0 1 3.1425 3.1428 3.1428 3.1428 0 0 1 -0.699 1.9694 12.571 12.571 0 0 0 -4.9826 -3.8148 3.1428 3.1428 0 0 1 2.5391 -1.2974z" style="fill:#ffffff"/>
</svg>

<svg xmlns="http://www.w3.org/2000/svg" width="16" height="16" version="1.1" viewBox="0 0 16 16">
 <rect style="fill:#7767c0" width="16" height="16" x="0" y="0" rx=".8" ry=".8"/>
 <path style="fill:#ffffff" d="M 9.6192,1.6043 8.7681,2.8933 A 3.7142,3.7142 0 0 0 8.2855,2.857 3.7142,3.7142 0 0 0 6.8621,3.1416 L 5.7084,2.1188 6.0187,3.635 A 3.7142,3.7142 0 0 0 5.2107,4.5004 12.571,12.571 0 0 0 0.85707,3.7142 12.571,12.571 0 0 0 -6e-5,3.757 V 4.3499 A 12.286,12.286 0 0 1 1.1428,4.2856 12.286,12.286 0 0 1 13.405,16 H 13.414 A 12.571,12.571 0 0 0 11.086,8.9969 3.7142,3.7142 0 0 0 11.706,8.0098 L 13.264,7.9161 11.963,7.0573 A 3.7142,3.7142 0 0 0 12,6.5713 3.7142,3.7142 0 0 0 11.721,5.1639 L 12.749,4.0056 11.231,4.3162 A 3.7142,3.7142 0 0 0 9.7118,3.145 Z M 8.2855,3.4285 A 3.1428,3.1428 0 0 1 11.428,6.5713 3.1428,3.1428 0 0 1 10.729,8.5407 12.571,12.571 0 0 0 5.7464,4.7259 3.1428,3.1428 0 0 1 8.2855,3.4285 Z"/>
</svg>
